X:5892
T:Gan Ainm
R:reel
S:John Whelan
H:
N:
D:
Z:Adrian Scahill
M:4/4
L:1/8
K:F
BGGA BGdc|(3BAG AF DFAc|BGG2 DGBc|d3e fdcA|\
BGG2 fdcA|FAA cAFA|BGG2 FDCF|1 DG^FA G2dc:|2 DG^FA GABc||\
dgg2 dgag|fdd2 cAFA|BGG2 Bcde|f3a gfag|\
fdd2 agfd|cff2 dcAc|B3G AGFC|DGG^F GABc:||
